public/devto-dark.svg

<svg width="256" height="256" viewBox="0 0 256 256" fill="none" xmlns="http://www.w3.org/2000/svg">
<path fill-rule="evenodd" clip-rule="evenodd" d="M87.3749 147.217C87.3749 157.436 81.0804 172.918 61.1561 172.886H36V83H61.6874C80.9015 83 87.3641 98.4608 87.3695 108.685L87.3749 147.217ZM62.582 99.8189C64.6856 99.8189 66.7946 100.607 68.8982 102.182C70.9963 103.757 72.0535 106.126 72.0589 109.277V147.114C72.0589 150.27 71.0071 152.633 68.9036 154.209C66.8 155.784 64.691 156.572 62.5874 156.572H53.1268V99.8189H62.582Z" fill="white"/>
<path d="M141.959 99.0529H113.073V119.924H130.731V135.988H113.073V156.854H141.965V172.918H108.253C102.203 173.076 97.1717 168.284 97.0199 162.222V94.2561C96.8735 88.1989 101.661 83.1684 107.706 83.0163H141.965L141.959 99.0529Z" fill="white"/>
<path d="M198.149 161.684C190.992 178.389 178.17 175.064 172.429 161.684L151.539 83.0217H169.197L185.305 144.8L201.336 83.0217H219L198.149 161.684Z" fill="white"/>
</svg>

<svg xmlns="http://www.w3.org/2000/svg" width="256" height="256" viewBox="0 0 256 256"><g fill="none"><rect width="256" height="256" fill="#fff" rx="60"/><path fill="#000" fill-rule="evenodd" d="M87.375 147.217c0 10.219-6.295 25.701-26.219 25.669H36V83h25.687c19.215 0 25.677 15.46 25.683 25.685zM62.582 99.819c2.104 0 4.213.788 6.316 2.363c2.098 1.575 3.156 3.944 3.16 7.095v37.837q.001 4.732-3.154 7.095c-2.104 1.575-4.213 2.363-6.317 2.363h-9.46V99.819z" clip-rule="evenodd"/><path fill="#000" d="M141.959 99.053h-28.886v20.871h17.658v16.064h-17.658v20.866h28.892v16.064h-33.712c-6.05.158-11.081-4.634-11.233-10.696V94.256c-.146-6.057 4.641-11.088 10.686-11.24h34.259zm56.19 62.631c-7.157 16.705-19.979 13.38-25.72 0l-20.89-78.662h17.658l16.108 61.778l16.031-61.778H219z"/></g></svg>
